X: 29
T:Mexican Waltz
% Nottingham Music Database
S:
M:3/4
L:1/4
K:G
d|"G"G2B|"G"dBG|"D"F2"C"e|"D7"d2D|"D7"F2A|"D7"cAF|"G"G2"C"e|"D7"d2D|
"G"G2B|"G"dBG|"C"c2"b"d|"Am"c2D|"D7"F2A|"D7"cAF|"G"B2"D7"A|"G7"G3|"C"e3|
"C"e3|"C"efg|"C"age|"G"d3/2e/2d|"D7"cBA|"G"GBd|"G"g2:|<end>
<start>
